X: 95
M:6/8
L:1/8
K:G
|:f|\
gfg efg | f2d def | gfg aga | bge e2f |
gfg aga | bge efg | dcB cBA | BGG G2 "_D.C.":|


